input macros
input hatching
input mparrows

verbatimtex
%&latex
\documentclass[oneside]{book}
\usepackage{../lectures}
\begin{document}
etex

filenametemplate "%j-%1c.mps";
prologues:=3;
setarrows(barbedsharp);
linecap:=butt;
%linejoin:=mitered;
%filenametemplate "%j-%1c.svg";
outputformat := "eps";

beginfig(5) 
save u,p;
u:=1.4cm;
path p[];




endfig;



end
